X:1
T:The Well-Tempered Clavier Part II Fuga XVII
T:BWV 886
T:J. S. Bach
%%score { ( 1 3 ) | ( 2 4 5 ) }
L:1/8
Q:1/4=132
M:4/4
K:Ab
V:1 treble nm="Harp"
V:3 treble 
V:2 bass 
V:4 bass 
V:5 bass 
V:1
"^Allegro" z ecf Bc/d/ eE | AB/c/ d2- d/e/c/d/ B/c/d/e/ | z agc' fg/a/ bB | %3
 ef/g/ a2- a/b/g/a/ f/g/a/b/ | g/f/g/a/ b/a/g/b/ a/g/f/e/ d/c/d/e/ | ce a2 g2 _g2 | f2 _f2 e a2 g | %7
 a z z2 z4 | G/A/G/F/ E/_G/F/E/ =DBAF | GB e4 =d_d- | db/a/ g/f/e/d/ c2 z c | dfBe A z z2 | %12
 z f/e/ d/c/B/A/ G/A/F/G/ A/G/A- | A/G/A/B/ G/F/_G- G/F/G/E/ F/=G/A/F/ | G A2 G2 =E F2- | %15
 F2 =E2 FAGc | FG/A/ BB, EF/G/ A2- | A/B/G/A/ F/G/A/B/ GE A2 | G2 _G2 F2 _F2 | %19
 E A2 _G- G/A/F/G/ E/F/G/A/ | F B2 A- A/B/G/A/ F/G/A/B/ | z ecf Bc/d/ eE | %22
 AB/c/ d2- d/e/c/d/ B/c/d/e/ | c=e f2 e2 _e2 | =d2 _d2 c f2 e- | eE =D=d- dD Cc- | %26
 cC =B,=B c/B/c/=d/ e/d/c/e/ | =d/c/d/e/ f/e/d/f/ =e/d/e/f/ g/f/e/g/ | fc f4 =e_e- | %29
 ec'/b/ =a/g/f/e/ d2 z d | e_gcf B z z2 | z2 B2- B/B/A/_G/ F/G/A/F/ | _G/A/G/F/ E/F/G/E/ FGAF | %33
 B=d e>f _dcBe | cfd_g cd/e/ fF | Bc/d/ e2- e/f/d/e/ c/d/e/f/ | B2 c2 d4 | c2 =B2 _B2 __B2- | %38
 BA- A2- AGA_B | c=d e/_f/_d/e/ _c/d/e/f/ d/e/_c/d/ | B/e/f/g/ a2- a/a/g/f/ g_g- | %41
 g/_g/f/e/ f_f e4- | e/e/=d/c/ d_d- d/d/c/B/ c_c | B=c _d2- _d3 c | d2 z2 _f2 z2 | %45
 =g2 z2[Q:1/4=72]"^Adagio" !fermata!b2[Q:1/4=132]"^Allegro" z/ d/c/B/ | %46
 c/A/B/c/ d/e/f/g/ a/e/f/d/ c/f/=d/e/ | A3/2F/4G/4 A/4G/4A/4G/4A/4G/4F/4G/4 A>B c>=d | %48
 e4- ed/c/ B/G/A | B A2 G A4 |] %50
V:2
 z8 | z8 | z8 | z8 | z8 | z ECF B,C/D/ EE, | A,B,/C/ D2- D/E/C/D/ B,/C/D/E/ | %7
 C/B,/C/D/ E2[I:staff -1] =D2 _D2 |[I:staff +1] E,F,/G,/ A,2- A,/B,/G,/A,/ F,/G,/A,/B,/ | %9
 E,/=D,/E,/F,/ G,/F,/E,/G,/ F,/E,/F,/G,/ A,/G,/F,/A,/ | %10
 G,/F,/G,/A,/ B,/A,/G,/B,/ A,/G,/A,/B,/ C/B,/A,/C/ | B,/A,/B,/C/ D/C/B,/D/ C/B,/C/D/ E/D/C/E/ | %12
 D/C/D/E/ F/E/D/F/ EE,C,F, | B,,C,/=D,/ E,E,, A,,B,,/C,/ _D,2- | %14
 D,/E,/C,/D,/ B,,/C,/D,/E,/ A,,C,D,A,, | B,,/C,/A,,/B,,/ G,,/A,,/B,,/C,/ F,,/C,/F,- F,/E,/D,/C,/ | %16
 D,/C/B,/A,/ G,/F,/E,/D,/ C,/B,/A,/G,/ F,/E,/=D,/C,/ | B,, E,2 D,- D,/C,/D,/E,/ F,/E,/D,/C,/ | %18
 D,/F,/E,/D,/ C,/D,/E,- E,/E,/D,/C,/ B,,/=B,,/A,,/_B,,/ | G,,A,,D,E, A,B,_G,A, | %20
 D,_G,E,F, B,CA,B, |[I:staff -1] G2[I:staff +1] A,/B,/C/=D/ E/F/E/_D/ C/E/D/C/ | %22
 D/E/D/C/ B,/=B,/A,/_B,/ G, A,2 G,- | G, z z/ F,/G,/A,/ B, z z2 | B,/C/B,/A,/ G,/A,/B,/G,/ A,DB,C | %25
 F,2 z B, E,2 z A, | =D,F,G,G,, C,G, C2- | C2 =B,_B,- B,G/F/ =E/=D/C/B,/ | A,2 z A, B,DG,C | %29
 F, z z2 z/ =A,,/B,,/C,/ D,/C,/B,,/D,/ | C,/B,,/C,/D,/ E,/D,/C,/E,/ =D,/C,/D,/E,/ F,/E,/D,/F,/ | %31
 z B,^F,=B, =F,_G,/A,/ _B,B,, | E,F,/_G,/ A,2- A,/B,/G,/A,/ F,/G,/A,/B,/ | %33
 _G,/A,/F,/G,/ E,/F,/=G,/=A,/ B,/C/_A,/B,/ G,/=A,/B,/C/ | %34
 =A,/F,/G,/A,/ B,/C/D/E/ F/_G/F/E/ =D/B,/C/D/ | E/F/E/D/ C/=A,/B,/C/ DB, F2- | %36
 F/F/E/D/ E/D/C/B,/ A,DB, z | C z A, z B, z z2 | z[I:staff -1] E- EA, DB, _C[I:staff +1] z | %39
 F,,/_G,,/A,,/B,,/ E,, z z4 | z ECF B,C/=D/ EE, | A,B,/C/ D2- D/E/C/D/ B,/C/D/E/ | %42
 C2 B,2- B,2 A,/_G/F/E/ | =D[I:staff -1]E _F_D EF_GE | %44
 _F2[I:staff +1] z2[I:staff -1] __B2[I:staff +1] z2 | %45
[I:staff -1] d2[I:staff +1] z2[I:staff -1] B2[I:staff +1] z2 | z4 z2 z A, | A,2 G,B, A,D A,2 | %48
 G,2 _G,2 F,2 _F,2 | E,4- E,4 |] %50
V:3
 x8 | x8 | c/B/c/=d/ e2 d2 _d2 | c2 _c2 B e2 =d | eBGc FG/A/ B2- | %5
 B/B/A/G/ A/e/d/c/ d/e/d/c/ B/d/c/B/ | c/d/c/B/ A/_c/B/A/ Ged=c | %7
 e/f/e/d/ c/B/A/G/ A/B/A/G/ F/A/E/F/ | C2 _C2 B, E2 =D | E2 z G AcFB | E z z2 z E A2- | %11
 A2 G_G- Ge/d/ c/B/A/=G/ | F z z2 z2 E2 | =D2 _D2 C2 _C2 | B,EDB, C/D/B,/C/ A,/B,/C/D/ | %15
 G,4 A, z z2 | x8 | z4 z ECF | B,C/D/ E[I:staff +1]E,[I:staff -1] A,B,/C/ D2- | %19
 D/E/C/D/ B,/C/D/E/ C D2 C- | C/E/D/E/ C/D/E/F/ =D E2 _D- | D/D/C/B,/ z F G2 z A | A z z B- BAFE- | %23
 EcAd GA/B/ c[I:staff +1]C |[I:staff -1] FG/A/ B2- B/c/A/B/ G/A/B/c/ | %25
 A/B/G/A/ F/G/A/B/ G/A/F/G/ E/F/G/A/ | F/G/E/F/ =D/E/F/G/ E2 z[I:staff +1] E | %27
 FA=DG C[I:staff -1] z z2 | %28
 z/[I:staff +1] =E/F/[I:staff -1]G/ A/G/[I:staff +1]F/[I:staff -1]A/ G/[I:staff +1]F/[I:staff -1]G/A/ B/A/G/B/ | %29
 =A/G/A/B/ c/B/A/c/ BF B2- | B2 =A_A- Af/e/ =d/c/B/A/ | _G/A/G/F/ E/F/G/E/ F/G/F/E/ =D/E/F/D/ | %32
 E/F/E/D/ C/=D/E/C/ D E2 D | EA_Gc F z z G | F z B2 =A2 _A2 | G2 _G2 F B2 A | %36
 G3 E A/G/F/A/ G/A/G/F/ | E/F/_G/F/ F/G/F/E/ D/E/F/E/ E/_F/E/D/ | C2 _F2- F E2 E | %39
 AF_G=G A/B/_G/A/ F/=G/A/B/ | G2 z/ e/=d/c/ dB- B/_d/c/B/ | cA- A/_c/B/A/ GABG | %42
 AF- F/A/G/F/ GE- E/B/A/_G/ | F__B A_F _BABA | __B2 z2 d2 z2 | _f2 z2 [de]2 z2 | %46
 z4 z2 z[I:staff +1] B, | C_C B,_D =C<[I:staff -1]F- F/E/A | %48
 B2 E[I:staff +1]E,[I:staff -1] A2 D2- | D/E/C/D/ B,/C/D/E/ [A,C]4 |] %50
V:4
 x8 | x8 | x8 | x8 | x8 | x8 | x8 | z A,G,C F,G,/A,/ B,B,, | x8 | x8 | x8 | x8 | x8 | x8 | x8 | %15
 x8 | x8 | x8 | x8 | x8 | x8 | E,2 A,2 G,2 _G,2 | F,2 _F,2 E,=F,D,E, | %23
 A,,/C,/B,,/A,,/ D,2- D,/C/C/B,/ =A,/B,/C/_A,/ | x8 | x8 | x8 | x8 | x8 | x8 | x8 | E,2 z2 z4 | %32
 x8 | x8 | x8 | x8 | z2 z z F,B, E,F,/_G,/ | A,A,,D,E, _G,2- G,/A,/F,/=G,/ | %38
 E,/F,/_G,/A,/ D,/E,/_C,/D,/ B,,/C,/D,/E,/ A,,/B,,/_G,,/A,,/ | x8 | x8 | z4 z A,G,C | %42
 F,G,/A,/ B,B,, E,F,/G,/ A,2- | A,/B,/_G,/A,/ _F,/G,/A,/__B,/ G,/A,/F,/G,/ E,/F,/G,/A,/ | %44
 D,/D/_C/D/ __B,/D/_F,/B,/ D,/B,/A,/B,/ =F,/=B,/D,/F,/ | %45
 _B,,/_F,/E,/_F,/ D,/F,/B,,/D,/ !fermata!G,,2 z/ E,/=F,/G,/ | A,/C/B,/A,/ G,/F,/E,/D,/ C,D,E,F, | %47
 E,=D,E,=E, F,>G, A,F, | E,2 z C, D,2 z/ B,,/C,/D,/ | G,,A,, E,,2 A,,4 |] %50
V:5
 x8 | x8 | x8 | x8 | x8 | x8 | x8 | x8 | x8 | x8 | x8 | x8 | x8 | x8 | x8 | x8 | x8 | x8 | x8 | %19
 x8 | x8 | x8 | x8 | x8 | x8 | x8 | x8 | x8 | x8 | x8 | x8 | x8 | x8 | x8 | x8 | x8 | x8 | x8 | %38
 x8 | x8 | x8 | x8 | x8 | x8 | x8 | x8 | x8 |[I:staff -1] z6[I:staff +1] C[I:staff -1]F | %48
[I:staff +1] B,C/D/[I:staff -1] z2[I:staff +1] A,B,/C/[I:staff -1] z[I:staff +1] A, | %49
[I:staff -1] E4 E4 |] %50

